X:5
%%scale 0.65
T:Credidi
C:Michael East
%%score [1 | 2 |3 |4 |5]
M:4/2
L:1/4
K:C
V:1 name="Treble I"
Z3|z d2 c/A/ _B G A d-| d ^c d2 A2 F _B | A2 G2 z4 | z a2 g/e/ f d c B |
A A2 ^G A d2 ^c | d _B A2 f e e2 | z4 z2 z a-|a g/e/ f d ^c A/B/ =c2 |
A d e c2 _B/G/ A2 | z a2 g/e/ f d A A-| A/B/ c d e2 d2 ^c | d4 z4 | z8 |
Z4 |z4 z2 d2-|d2 c2 B4-|B2 c2 B4-|
B4 B2 A2-| A B c B A B c B/A/ |^G A B2 c d e2| ^d2 e4 d2 | e2 z B A>A A B |
A ^F G/A/ B A G z G | ^F G A B/c/ d B A G | z2 z G ^F G A B/c/ |d B A2 B2 z2 |
z8 | z4 z2 e2-| e2 e2 B2 c2 | z2 d4 c2-|c _B A2 B4 | A8 |
A2 z2 z4 | z4 z2 z =c/B/ |A d2 ^c d/e/ f>e d | ^c2 z =c/c/ A G F E |
z4 z2 z a/a/|a e f/g/ a f e d/c/ _B|A d2 ^c d A z2 | z4 z e f/g/ a |
f e z e f/g/ a f e | z4 z f e d | ^c A/B/ =c F/G/ A2 z2 | z f e d ^c a g f |
e =c2 A A2 z2 | z a g f e f e d |^c A/B/ =c d e f e2 | Hd8 |]
V:2 name="Treble II"
z4 d3 c/A/ |_B G A d ^c>d e2 | d f e2 d2 z2 |
z4 z2 z a-|a g/e/ f d/e/ f e d2 | z2 z _B A2 d e/d/ |^c d2 c d2 z e-|
e d/A/ c B A f e2 | d2 z2 z4 | z a2 g/e/ f d ^c A/B/ |=c>e d2 e a2 g/e/ |
f d ^c/d/e/f/ e g f2 | e d2 ^c d4 | z2 z g ^c d e>e | d4 z2 B2 |B3 B B2 ^A2 |
B2 d2 ^c4 | ^d2 B2 B4 | B6 B2 | e2 d3 c A2 | B c d2 d4 | e6  ^f2 | e4 ^d2 e2-|
e2 ^d2 e2 c2-|c B A ^G A E e2-|e d/c/ B2 A2 A2-|A2 G2 ^F4 | ^G2 z =G ^F>F F G |
A3/2 A/B/c/ d d4 | z G ^F G A B/c/ d B | A G z2 z G ^F G | A B/c/ d4 e2-|
e e d2 c4 | B2 A2 B4 | !mediumphrase!^c2 A2 d2 =c B | A4 B2 e2-| e2 d c _B c d2 | ^c2 d4 c2 |
d2 z A A>A A>B |c/d/ e f e d2 ^c A/B/ | =c d e3/2 e/f/g/ a2 g | a2 z2 z c/c/ A A-|
A/B/ c d e f>e d d |^c2 z2 z4 | z a/a/ g e f/g/ a f e | d/c/ _B A d2 ^c d A |
z e f/g/ a f e z E |F G A _B z A/=B/ c F/G/ | A f e d ^c =c2 A | A a g f e f e d |
^c A z2 z f g d |e f e d ^c a g f |e c2 A/B/ ^c d2 c | Hd8|]
V:3 name="Tenor I" clef=alto middle=c octave=-1
Z2 | z4 z A2 G/E/ |
F D/E/ F E/F/ G/A/ _B A2 | A4 z2 z d-|d c/A/ _B G ^F2 G G-| G F E2 D A2 ^G |
A2 z2 z2 z A-| A G/D/ F E D E C G | F/G/ A A2 z4 | z8 |
z2 z A2 G/E/ F D | A F E2 D A2 D-|D E D G2 F E2 | ^F4 z2 G2 |^F3 F F4-|
F2 B4 ^A2 | B2 G3 ^F E2 | ^F ^D E G F2 G2-|G2 G3 ^F/E/ F2 | G A B2 A4 | G6 ^F2 | G2 A4 G2 |
^F4 ^G2 E2 | E8 | E ^F ^G2 A B c2 | B8 | B2 z2 z2 z G, |
D>D D G ^F G A B/c/ |d B A G ^F G A B/c/ | d2 D3 d>c B |A G2 ^F G4 |
G3 =F E4 | E2 A3 ^G/^F/ G2 | A4 !mediumphrase!=G2 G2-| G2 ^F2 G4-| G2 =F2 E2 D2 | A E F G A3 G |
^F2 z E>E =F E E |F C D E F2 E2 | z A/A/ A3/2 G/F/E/ D2 D | E2 z A/A/ F E D ^C |
D E F E D>E F F | E A, D ^C D E F G |A/G/ F E>E D E F G | A _B c/B/ A G E z E |
F/G/ A F E/A,/ D ^C D A, | A G F E/D/ ^C =C2 A,| A,2 z F E A G F| E A,/B,/ C D E c2 A |
A A/B/ c F/G/ A F E D | ^C A,/B,/ =C D E c2 A-| A/G/ F E D A4 | HA8|]
V:4 name="Tenor II" clef=alto middle=c octave=-1
Z2 | z a2 g/e/ f d ^c2 |
d _B A2 d>e f2 | e2 d2 z4 | z2 z d2 c/A/ _B G | A4 d2 e>d |
^c A e2 =c d e2 | A d2 ^c d =c2 B/G/ |A f e2 d2 e f-|f e/c/ d _B A F/G/ A e |
d2 z2 z4 | z2 A2 d3 f-|f e/c/ F _B A4 | A4 z2 d2 | ^d3 d d2 ^c2|
B2 ^f2 f3 f | ^f2 e3 f g2 | ^f2 g e ^d2 =d2 | c2 B2 A3 A | G4 z4 | Z6|
z2 z G d>d d g |
^f/e/d/c/ B/A/ G d e f g | d4 d3 G | ^F G A B/c/ d B A G | ^F G A2 G4 |
G6 A2 | B2 c2 B4 |!mediumphrase!A2 c2 B2 A G | d3 d G4 | z4 z2 g2-|g2 f2 e4 |
d2 z ^c>c d c =c/B/ | A G A>A A2 A2-|A f e2 d2 z2 | z8|
z c/c/ A>A A4 | A2 z e f g a g | z2 z A d ^c d e |f g a/g/ f !mediumphrase!e A d ^c |
z A d ^c z e f/g/ a | f e d/c/ _B A4-| A4 A f e d | ^c =c2 A A A/B/ c d |
A a g f e A/B/ c F/G/ | A c2 A A A/B/ c d | e a>g f e d e2 | H^f8 |]
V:5 clef=bass name=Bass middle=d octave=-2
z8 | z4 z a2 g/e/ | f d ^c2 d2 A2 |
z2 z a g2 f e/d/ | a2 d d'2 c'/a/ _b g | ^f2 g2 d2 z2 | z8 |
z d e2 f d a>g | ^f g a2 d a2 g/e/ | f d ^c2 d _B A2 | z4 z f2 e/c/ | 
d _B A2 z4 | z4 z2 z d-|d c/A/ _B G A4 | d4 z2 G2 | B3 B B2 ^f2 |
=d2 B2 ^f4 | B2 e3 ^d e2 | ^d B e2 B2 G2 | c2 G2 d4 | G2 g4 ^f2 | e6 ^d2 | e2 A2 B4-|
B4 e2 a2-|a ^g a e a g a g/^f/ | e3 d c B A2 | B8 | e2 z2 z4 |
z8 | z4 z g ^f g | d e ^f g  d4-| d4 G2 c2-|
c2 B2 c2 A2 | ^G2 A2 e3 e | A4 z4 | z4 z2 c2-|c2 d2 G4 | A8 |
d2 z a>a d a a/g/ | f e d ^c d2 a>g | f d a2 d d'>c' _b |a2 z2 z2 z a/a/|
f e d ^c d4 | a2 z2 z4| z8 | z4 z2 z a|
d' ^c' z2 z A d ^c | d e f g a2 A2 | z4 z a/b/ c' f/g/ | a8 |
z f e d ^c d =c _B | A8 | A8 | Hd8|]

